app/assets/images/icon-chat.svg

<svg viewBox="0 0 28 32" xmlns="http://www.w3.org/2000/svg"><path d="m28 32s-4.7136734-1.8549333-8.5272182-3.3408h-16.03529073c-1.89827118 0-3.43749107-1.632-3.43749107-3.6448v-21.3696c0-2.0128 1.53921989-3.6448 3.43749107-3.6448h21.12401773c1.8982712 0 3.4374911 1.632 3.4374911 3.6448v18.4042667h.0010001zm-4.1385912-11.9818667c-.3304865-.4076091-.9073276-.4547497-1.2921846-.1056-.0300043.0266667-3.0154308 2.6816-8.5702243 2.6816-5.48578373 0-8.51721679-2.6357333-8.5712245-2.6837333-.38482421-.3474572-.96016549-.2998905-1.29018432.1066667-.15846057.1954249-.23714168.4502728-.21854751.7078748s.13292218.4966032.31756166.6638585c.14202029.128 3.53750536 3.1498667 9.76239467 3.1498667 6.2258894 0 9.6213744-3.0218667 9.7633947-3.1498667.1843396-.1672274.2984696-.4060095.3170593-.6633493s-.0598988-.5119488-.2180451-.7073174z" fill="#fff"/></svg>

<svg viewBox="0 0 28 32" xmlns="http://www.w3.org/2000/svg"><path d="M28,32 C28,32 23.2863266,30.1450667 19.4727818,28.6592 L3.43749107,28.6592 C1.53921989,28.6592 0,27.0272 0,25.0144 L0,3.6448 C0,1.632 1.53921989,0 3.43749107,0 L24.5615088,0 C26.45978,0 27.9989999,1.632 27.9989999,3.6448 L27.9989999,22.0490667 L28,22.0490667 L28,32 Z M23.8614088,20.0181333 C23.5309223,19.6105242 22.9540812,19.5633836 22.5692242,19.9125333 C22.5392199,19.9392 19.5537934,22.5941333 13.9989999,22.5941333 C8.51321617,22.5941333 5.48178311,19.9584 5.4277754,19.9104 C5.04295119,19.5629428 4.46760991,19.6105095 4.13759108,20.0170667 C3.97913051,20.2124916 3.9004494,20.4673395 3.91904357,20.7249415 C3.93763774,20.9825435 4.05196575,21.2215447 4.23660523,21.3888 C4.37862552,21.5168 7.77411059,24.5386667 13.9989999,24.5386667 C20.2248893,24.5386667 23.6203743,21.5168 23.7623946,21.3888 C23.9467342,21.2215726 24.0608642,20.9827905 24.0794539,20.7254507 C24.0980436,20.4681109 24.0195551,20.2135019 23.8614088,20.0181333 Z" fill="#FFFFFF"></path></svg>
